X: 1
T: Wood of Fyvie
T: 8x32R 3C (18th Cent.)
T: 1S&C, 2S&C; CR; 213 AdvRet; R3
P: Bonnie Lass o' Fyvie
C: from Bobby Brown recording, arr. T. Traub 8-23-2004
R: Reel
M: 2/4
L: 1/8
K: D
|: fe|"D"d>c de|d2 A2|d>c de|d2 cd|"A"e2 fg|"D"a2 gf|"A"e2 A2|"A7"A2 ag|
"D"f>e fg|"D"a3 A|"G"d>e dB|"G"G2 FG|"D"A2 d2|"A"ed cB|"D"A2 "G"d2|"D"d2 :|